X: 22910
T: Larry Get Out Of The Bin
R: reel
M: 4/4
K: Gmajor
|:BG~G2 EGDe|dBed BGED|BG~G2 EGDB|1 DEGA ~G3A:|2 DEGA ~G3B||
|:FG~G2 DEeg|fdBG FGFD|FG~G2 DBGD|1 DEGA ~G3B:|2 DEGA GABc||
|:dGGF ~G2FG|eGGF ~G2FG|EFGA cBGD|EGcE FFDz|
dGGF ~G2FG|eGGF ~G2FG|EFGA cBGD|FGAB ~G3 z:|

